X:1
T:First Fruits (Paine), 76.74 D
T:First Fruits (Paine), 76.74 D
T:John Knowles Paine (1839-1906)
T:Public Domain Courtesy of the Cyber Hymnal™
C:John Knowles Paine (1839-1906)
Z:Public Domain
Z:Courtesy of the Cyber Hymnal™
%%score ( 1 2 ) ( 3 4 )
L:1/8
Q:1/4=108
M:4/4
K:C
V:1 treble 
V:2 treble 
V:3 bass 
V:4 bass 
V:1
 [EG]2 | [Gc]2 [Ge]2 [Ad]2 [FA]2 | [Gc]4 [GB]2 (AG) | [Gc]2 [EA]2 [DG]2 [D^F]2 | [DG]6 [Gc]2 | %5
 [Fd]2 [Ee]2 [FA]2 [Af]2 | [Ge]4 [Gd]2 [Ge]2 | [FA]4 [Fc]4 | [Ec]6 [Ge]2 | [Gd]2 c2 [GB]2 [=FA]2 | %10
 [Gd]4 [FG]2 [EA]2 | [EB]2 [Ec]2 [EA]2 [^DB]2 | E6 [B,G]2 | [CA]2 [FB]2 [Ec]2 [Af]2 | %14
 [Ge]4 [Gd]2 [Ge]2 | [FA]4 [Fc]4 | [Ec]6 |] %17
V:2
 x2 | x8 | x6 D2 | x8 | x8 | x8 | x8 | x8 | x8 | x2 (E^F) x4 | x8 | x8 | E6 x2 | x8 | x8 | x8 | %16
 x6 |] %17
V:3
 [E,C]2 | [E,C]2 [C,C]2 [F,C]2 [D,D]2 | [G,E]4 [G,D]2 [F,B,]2 | [E,C]2 [C,C]2 [D,B,]2 [D,A,]2 | %4
 [G,,B,]6 [E,C]2 | [D,B,]2 [C,G,]2 [F,A,]2 [D,B,]2 | C4 [G,B,]2 [C,C]2 | [F,C]4 [F,A,]4 | %8
 [C,G,]6 C2 | [B,D]2 [A,D]2 [G,D]2 ([D,D]C,) | [B,,D]4 [B,,D]2 [C,C]2 | %11
 [B,,G,]2 [A,,A,]2 [C,^F,]2 [B,,A,]2 | [E,G,]6 [F,G,]2 | [E,G,]2 [D,D]2 [A,C]2 [D,B,]2 | %14
 C4 [G,B,]2 [C,C]2 | [F,C]4 [F,A,]4 | [C,G,]6 |] %17
V:4
 x2 | x8 | x8 | x8 | x8 | x8 | (E,3 F,) x4 | x8 | x6 C2 | x8 | x8 | x8 | x8 | x8 | (E,3 F,) x4 | %15
 x8 | x6 |] %17

